X:151
T: Ewe With the Crooked Horn
N: O'Farrell's Pocket Companion v.2 (Sky ed. p.78)
N: "Scotch"
M: C
R: hornpipe % strathspey
L: 1/8
Q: 250
K: Am
A|EAA>B G>ABG|EA AB/c/ d>Bc>A|B>cdc B>AGD|EAA>c B^G A2 :|
Aaa>b gab>g|eaab ^gb a2|eaa>b c'/b/a b/a/g|
eac'a b/a/^g a2|=g>age d>cBG|A/B/c/d/ e>c dB A2 :|
